X:1
T:9. Hugen
T:9. Hugen
T:Symra
T:Chr. Haslerud
T:Ivar Aasen
C:Chr. Haslerud
Z:Ivar Aasen
%%score [ 1 2 3 4 ]
L:1/8
Q:1/4=92
M:3/4
K:G
V:1 treble nm="Soprano"
V:2 treble nm="Alto"
V:3 treble-8 nm="Tenor"
V:4 bass nm="Bass"
V:1
!p!"^Let" G2 D2 B3/2 A/ | (G2 d2) B z |!mf! A2 D2 c3/2 B/ | (A2 e2) d z |!pp! D E F G A B | %5
w: Hu- gen fer so|vi- * da|mil- lom Von og|Kvi- * da.|My- ket kje- mer til som|
 d c c B A z |!p! F G!<(! A B c e!<)! | e d d c B z |!f! g2 e2 d3/2 B/ | A4 G2 |] %10
w: in- gen had- de spaat,|my- ket kje- mer stort og|ver- der si- dan smaatt.|Hu- gen fer so|vi- da.|
V:2
!p! B,2 B,2 D3/2 F/ | G4 G z |!mf! D2 D2 A3/2 G/ | (F3 G) A z |!pp! D D D D D D | E E D D D z | %6
w: Hu- gen fer so|vi- da|mil- lom Von og|Kvi- * da.|My- ket kje- mer til som|in- gen had- de spaat,|
!p! D E!<(! F G A c!<)! | c B B A G z |!f! G2 G2 G3/2 G/ | F4 D2 |] %10
w: my- ket kje- mer stort og|ver- der si- dan smaatt.|Hu- gen fer so|vi- da.|
V:3
 z6 |!p! d c B A B B | z6 |!mf! e d c B A F |!pp! G G G G G G | G G F G F z | %6
w: |Hu- gen fer so vi- da||mil- lom von og Kvi- da|My- ket kje- mer til som|in- gen had- de spaat,|
!p! d d!<(! c B A F!<)! | G G A A B z |!f! d2 c2 d3/2 d/ | c4 B2 |] %10
w: my- ket kje- mer stort og|ver- der si- dan smaatt.|Hu- gen fer so|vi- da.|
V:4
 z6 |!p! B, A, G, F, G, G, | z6 |!mf! C B, A, G, F, D, |!pp! B,, B,, B,, B,, B,, B,, | %5
w: |Hu- gen fer so vi- da||mil- lom von og Kvi- da|My- ket kje- mer til som|
 A,, A,, A,, G,, D, z |!p! C B,!<(! A, G, F, D,!<)! | E, E, F, F, G, z |!f! B,2 C2 B,3/2 G,/ | %9
w: in- gen had- de spaat,|my- ket kje- mer stort og|ver- der si- dan smaatt.|Hu- gen fer so|
 D,4 G,2 |] %10
w: vi- da.|

